dist/svg/static/engine-small.svg

<svg xmlns="http://www.w3.org/2000/svg" width="24" height="24" viewBox="0 0 24px 24px"><g fill="none" stroke="currentColor" stroke-miterlimit="10"><path d="M8 3.5h7M11.5 4v3M3 12.5H0M.5 9v7M18.5 15.5v1.633c0 1.374-1.212 1.367-1.212 1.367H10l-2.583-2.954-3.917.027v-6.48L7 6.5h7.755l3.745 4h2v-2h1a2 2 0 0 1 2 2v5a2 2 0 0 1-2 2h-1v-2h-2z"/></g></svg>

<?xml version="1.0" encoding="UTF-8" standalone="no"?>
<svg width="24px" height="24px" viewBox="0 0 24 24" version="1.1" xmlns="http://www.w3.org/2000/svg" xmlns:xlink="http://www.w3.org/1999/xlink">
    <!-- Generator: sketchtool 46.2 (44496) - http://www.bohemiancoding.com/sketch -->
    <title>engine-small</title>
    <desc>Created with sketchtool.</desc>
    <defs></defs>
    <g id="icons-published" stroke="none" stroke-width="1" fill="none" fill-rule="evenodd">
        <g id="briefing" transform="translate(-2084.000000, -538.000000)"></g>
        <g id="engine-small" stroke="#000000">
            <path d="M8,3.5 L15,3.5 L8,3.5 Z M11.5,4 L11.5,7 L11.5,4 Z M3,12.5 L0,12.5 L3,12.5 Z M0.5,9 L0.5,16 L0.5,9 Z M18.5,15.5 L18.5,17.1 C18.5,18.5 17.3,18.5 17.3,18.5 L10,18.5 L7.4,15.5 L3.5,15.5 L3.5,9.1 L7,6.5 L14.8,6.5 L18.5,10.5 L20.5,10.5 L20.5,8.5 L21.5,8.5 C22.6,8.5 23.5,9.4 23.5,10.5 L23.5,15.5 C23.5,16.6 22.6,17.5 21.5,17.5 L20.5,17.5 L20.5,15.5 L18.5,15.5 Z" id="Shape"></path>
        </g>
    </g>
</svg>
